svgs/duotone/laptop-medical.svg

<svg xmlns="http://www.w3.org/2000/svg" viewBox="0 0 640 512"><!--! Font Awesome Pro 6.4.0 by @fontawesome - https://fontawesome.com License - https://fontawesome.com/license (Commercial License) Copyright 2023 Fonticons, Inc. --><defs><style>.fa-secondary{opacity:.4}</style></defs><path class="fa-primary" d="M512 96H128V352H512V96zM288 144c0-8.8 7.2-16 16-16h32c8.8 0 16 7.2 16 16v48h48c8.8 0 16 7.2 16 16v32c0 8.8-7.2 16-16 16H352v48c0 8.8-7.2 16-16 16H304c-8.8 0-16-7.2-16-16V256H240c-8.8 0-16-7.2-16-16V208c0-8.8 7.2-16 16-16l48 0V144z"/><path class="fa-secondary" d="M128 32C92.7 32 64 60.7 64 96V352h64V96H512V352h64V96c0-35.3-28.7-64-64-64H128zM19.2 384C8.6 384 0 392.6 0 403.2C0 445.6 34.4 480 76.8 480H563.2c42.4 0 76.8-34.4 76.8-76.8c0-10.6-8.6-19.2-19.2-19.2H19.2z"/></svg>

<svg xmlns="http://www.w3.org/2000/svg" viewBox="0 0 640 512"><!-- Font Awesome Pro 6.0.0-alpha2 by @fontawesome - https://fontawesome.com License - https://fontawesome.com/license (Commercial License) --><defs><style>.fa-secondary{opacity:.4}</style></defs><path d="M128 96H512V352H576V80C576 53.625 554.375 32 528 32H112C85.625 32 64 53.625 64 80V352H128V96ZM624 384H16C7.25 384 0 391.25 0 400V416C0 451.25 28.75 480 64 480H576C611.25 480 640 451.25 640 416V400C640 391.25 632.75 384 624 384Z" class="fa-secondary"/><path d="M128 96V352H512V96H128ZM416 240C416 248.8 408.8 256 400 256H352V304C352 312.8 344.8 320 336 320H304C295.2 320 288 312.8 288 304V256H240C231.2 256 224 248.8 224 240V208C224 199.2 231.2 192 240 192H288V144C288 135.2 295.2 128 304 128H336C344.8 128 352 135.2 352 144V192H400C408.8 192 416 199.2 416 208V240Z" class="fa-primary"/></svg>
